X:15544
T:Skuckupolska
A:Skucku, S. Jmtland
O:Sweden
M:3/4
L:1/8
Q:1/4=140
K:Dm
vD>E F2F2|(3F(GF) E2E2|D>^C D>F AF|(3D(FD) (3^C(EC) vA,2|\
u(D>E) F2F2|(3F(GF) E2E2|(3F(GF) D>^C DF|(E^C) D4::\
{A}va2 ((3aba) g>e|f2 ((3fgf) e>d|(A>^c d)e fe|(3g(ag) (3f(ed) (e2|\
a2) ((3aba) g>e|f2 ((3fgf) e>^c|A>G (3E(GE) (3D(FD)|(3^C(EC) D4:|\
T:Andrastmma
vA,>^C D2D2|(3D(ED) ^C2C2|A>G F>A dA|(3F(GF) (3A(=B^c)A2|\
u(A>G) A,2 D2|(3D(ED) A,2^C2|(3D(EF) A>G Ad|(3A(=B^c)d4::\
{A}vf2 ((3fgf) e>^c|d2 ((3ded) ^c>A|(D>E F)A d^c|(3e(fe) (3d(^c=B) c>A|\
f2 ((3fgf) (3e(fg)|a2 ((3aba) g>e|^c>A (3G(AG) (3F(AF)|(3A(=B^c) d4:|\
